X:35
T:Come hast to the Wedding
A:Wyresdale, Lancashire
B:E and J Winder, 1835-41
L:1/8
M:6/8
N:I wonder whose that was 
O:England
Z:Richard Robinson 
%%RRN:"1834"
%%TUNEURL: http://www.leeds.ac.uk/music/Info/RRTuneBk/gettune/00000e88.html
%%ID:00000e88
K:D
A|\
AFA Aaf | ede fdB | AFA BdF | EEE E2A |\
AFA Aaf | ede fdB | AFA faf | ddd d2 ::
a|\
afa afa | bgb afa | afa agf | eee e3 |\
a3 f3 | ede fdB | AFA faf | ddd d2 ::
